!!!SOCIAL_FUNCTION: stomp dance songs
!!!PDT:	1943
!!!LING_GROUP: Muskogean
!!!LANG: Non-Tone
Specific Region: Oklahoma, California, Mississippi, Louisiana, Texas, Alabama
!!!REG: Southeast
!!!COM: Anon.
!!!OTL: Stomp Dance Song (c)
!!!ODT: <1933//
!!!MPN: Lapintabeseihoke [Kills it Himself, Sidney Wesley]
!!!MLC: Philadelphia, Mississippi, United States of America
!! Song was recorded in January 1933.
!!!AGN: monody
!!!AMT: irregular
!!!RWG: Transcribed pitches, durations, and meters are only approximate.
**kern
*ICvox
*Imale
*clefF4
*k[f#c#g#]
*M3/4
*MM66
=1-
8A
16F#
16E
32A
16.A
16A
16G#
8A
8A
=2
8A
8B
16c#
8.A
8A
8A
*M2/4
=3
8A
16F#
16E
16A
8A
16r
*M3/4
=4
8A
8B
16c#
8.A
8A
8A
*M2/4
=5
8A
16F#
16E
32A
16.A
16F#
16E
*M3/8
=6
8A
8A
16A
16r
*M3/4
=7
8A
16A
16A
8cn
8A
8A
8A
=8
8A
16F#
16E
32A
16.A
16A
16G#
8A
16A
16r
=9
8c#
16.c#
32A
8B
8A
16A
8A
16r
=10
8A
16F#
16E
32A
16.A
16A
16G#
8A
8A
=11
16cn
8A
16A
8c
8A
16A
8A
16r
=12
8A
16F#
16E
32A
16.A
16A
16G#
8A
16A
16r
=13
8A
8B
16c#
8.A
8A
16A
16r
=14
8A
16F#
16E
32A
16.A
16A
16G#
8A
16A
32r
32d
=15
8.d
16A
8B
8A
16A
8A
16r
=16
8A
16F#
16E
32A
16.A
16A
16G#
8A
8A
=17
16c
8A
16A
8c
8A
16A
8A
16r
=18
8A
16F#
16E
32A
16.A
16A
16G#
8A
8A
=19
16A
8A
16A
8cn
8A
16A
8A
16r
=20
8A
16F#
16E
32A
16.A
16A
16G#
8A
16A
32r
32A
=21
4A
8A
8r
4r
==
*-
!!!CNT: Choctaw
!!!TXO: Choctaw
!!!OCY: United States
!!!OCL: Frances Densmore
!!!YOR: Frances Densmore, "Choctaw Music"
!!!YOR: Bulletin 136, page 163, No. 46
!!!PPR: Smithsonian Institution, Bureau of American Ethnology
!!!PPR: Government Printing Office
!!!PDT: 1943
!!!PPP: Washington, DC, United States of America
!!!YEC: Electronic Copyright 2000 David Huron
!!!YER: August 2000
!!!YEN: United States of America
!!!ENC: David Huron
!!!RDT: August 28, 2000
!!!EEV: Release 1.0
!!!AIN: vox
